public/cloud-icons/azure/compute/azure-vmware-solution.svg

<?xml version="1.0" encoding="UTF-8" standalone="no"?>
<!-- Generated by Microsoft Visio, SVG Export Azure VMware Solution.svg Page-1 -->

<svg
   xmlns:dc="http://purl.org/dc/elements/1.1/"
   xmlns:cc="http://creativecommons.org/ns#"
   xmlns:rdf="http://www.w3.org/1999/02/22-rdf-syntax-ns#"
   xmlns:svg="http://www.w3.org/2000/svg"
   xmlns="http://www.w3.org/2000/svg"
   xmlns:sodipodi="http://sodipodi.sourceforge.net/DTD/sodipodi-0.dtd"
   xmlns:inkscape="http://www.inkscape.org/namespaces/inkscape"
   width="56.689999"
   height="45.362087"
   viewBox="0 0 56.689998 45.362088"
   xml:space="preserve"
   class="st6"
   version="1.1"
   id="svg55"
   sodipodi:docname="Azure VMware Solution.svg"
   style="font-size:12px;overflow:visible;color-interpolation-filters:sRGB;fill:none;fill-rule:evenodd;stroke-linecap:square;stroke-miterlimit:3"
   inkscape:version="0.92.5 (2060ec1f9f, 2020-04-08)"><metadata
   id="metadata59"><rdf:RDF><cc:Work
       rdf:about=""><dc:format>image/svg+xml</dc:format><dc:type
         rdf:resource="http://purl.org/dc/dcmitype/StillImage" /></cc:Work></rdf:RDF></metadata><sodipodi:namedview
   pagecolor="#ffffff"
   bordercolor="#666666"
   borderopacity="1"
   objecttolerance="10"
   gridtolerance="10"
   guidetolerance="10"
   inkscape:pageopacity="0"
   inkscape:pageshadow="2"
   inkscape:window-width="640"
   inkscape:window-height="480"
   id="namedview57"
   showgrid="false"
   inkscape:zoom="2.081551"
   inkscape:cx="28.3465"
   inkscape:cy="22.67581"
   inkscape:window-x="0"
   inkscape:window-y="0"
   inkscape:window-maximized="0"
   inkscape:current-layer="svg55" />
	<style
   type="text/css"
   id="style2">
	<![CDATA[
		.st1 {fill:url(#grad0-6);stroke:none;stroke-linecap:butt;stroke-width:34}
		.st2 {fill:#ffffff;stroke:none;stroke-linecap:butt;stroke-width:34}
		.st3 {fill:url(#grad0-12);stroke:none;stroke-linecap:butt;stroke-width:34}
		.st4 {fill:#ffffff;fill-opacity:0.6;stroke:none;stroke-linecap:butt;stroke-width:34}
		.st5 {fill:#76bc2d;stroke:none;stroke-linecap:butt;stroke-width:34}
		.st6 {fill:none;fill-rule:evenodd;font-size:12px;overflow:visible;stroke-linecap:square;stroke-miterlimit:3}
	]]>
	</style>

	<defs
   id="Patterns_And_Gradients">
		<linearGradient
   id="grad0-6"
   x1="0"
   y1="86.604293"
   x2="47.819325"
   y2="86.604293"
   gradientTransform="scale(1.185504,0.8435231)"
   gradientUnits="userSpaceOnUse">
			<stop
   offset="0"
   stop-color="#0078d4"
   stop-opacity="1"
   id="stop4" />
			<stop
   offset="1"
   stop-color="#5ea0ef"
   stop-opacity="1"
   id="stop6" />
		</linearGradient>
		<linearGradient
   id="grad0-12"
   x1="-4.2726219e-08"
   y1="196.33504"
   x2="20.14333"
   y2="196.33504"
   gradientTransform="scale(1.9093169,0.52374752)"
   gradientUnits="userSpaceOnUse">
			<stop
   offset="0"
   stop-color="#76bc2d"
   stop-opacity="1"
   id="stop9" />
			<stop
   offset="0.815"
   stop-color="#86d633"
   stop-opacity="1"
   id="stop11" />
		</linearGradient>
	</defs>
	<g
   id="g53"
   transform="translate(-34,-34.002221)">
		<title
   id="title15">Page-1</title>
		<g
   id="group12573-1"
   transform="translate(34,-34.0157)">
			<title
   id="title17">Azure VMware Solution.12573</title>
			<g
   id="group12574-2">
				<title
   id="title19">Sheet.12574</title>
				<g
   id="shape12575-3"
   transform="translate(0,-5.0348)">
					<title
   id="title21">Sheet.12575</title>
					<path
   d="M 56.69,100.75 A 12.7402,12.7845 -180 0 0 45.64,88.46 16.063,16.119 -180 0 0 29.11,73.06 16.4661,16.5235 -180 0 0 13.37,83.84 15.2031,15.2561 -180 0 0 0,98.5 15.4331,15.4868 -180 0 0 15.96,113.38 c 0.48,0 0.95,-0.02 1.41,-0.06 h 25.85 a 2.56063,2.56955 -180 0 0 0.7,-0.09 12.8882,12.9331 -180 0 0 12.77,-12.48 z"
   class="st1"
   id="path23"
   inkscape:connector-curvature="0"
   style="fill:url(#grad0-6);stroke:none;stroke-width:34;stroke-linecap:butt" />
				</g>
				<g
   id="shape12576-7"
   transform="translate(24.5295,-8.1701)">
					<title
   id="title26">Sheet.12576</title>
					<path
   d="m 12,96.06 a 7.97795,8.00575 -180 1 0 -11.87,6.95 v 10.37 H 7.79 V 103.09 A 7.95276,7.98047 -180 0 0 12,96.06 Z M 5.42,110.99 H 2.49 v -7.08 a 8.18898,8.21751 -180 0 0 1.53,0.16 7.91811,7.9457 -180 0 0 1.4,-0.15 z m 0,-9.5 a 5.57795,5.59739 0 0 1 -1.4,0.2 5.47717,5.49625 0 0 1 -1.53,-0.24 z m 2.37,-1.26 -7.66,-0.12 a 5.62205,5.64164 0 1 1 7.66,0.11 z"
   class="st2"
   id="path28"
   inkscape:connector-curvature="0"
   style="fill:#ffffff;stroke:none;stroke-width:34;stroke-linecap:butt" />
				</g>
				<g
   id="shape12577-9"
   transform="translate(9.29764)">
					<title
   id="title31">Sheet.12577</title>
					<path
   d="m 0,112.09 a 1.28507,1.28955 -180 0 0 1.29,1.29 h 35.88 a 1.28507,1.28955 -180 0 0 1.29,-1.29 v -7.97 a 1.28507,1.28955 -180 0 0 -1.29,-1.29 H 1.29 A 1.28507,1.28955 -180 0 0 0,104.12 Z"
   class="st3"
   id="path33"
   inkscape:connector-curvature="0"
   style="fill:url(#grad0-12);stroke:none;stroke-width:34;stroke-linecap:butt" />
				</g>
				<g
   id="shape12578-13"
   transform="translate(41.9307,-5.82179)">
					<title
   id="title36">Sheet.12578</title>
					<path
   d="m 0,112.73 a 0.642535,0.644773 -180 0 0 0.64252,0.64476 L 2.23,113.38 a 0.642535,0.644773 -180 0 0 0.64252,-0.64476 L 2.87,111.14 A 0.642535,0.644773 -180 0 0 2.22748,110.49524 L 0.64,110.49 a 0.642535,0.644773 -180 0 0 -0.64252,0.64476 z"
   class="st2"
   id="path38"
   inkscape:connector-curvature="0"
   style="fill:#ffffff;stroke:none;stroke-width:34;stroke-linecap:butt" />
				</g>
				<g
   id="shape12579-15"
   transform="translate(41.9307,-1.84578)">
					<title
   id="title41">Sheet.12579</title>
					<path
   d="m 0,112.73 a 0.642535,0.644773 -180 0 0 0.64252,0.64476 L 2.23,113.38 a 0.642535,0.644773 -180 0 0 0.64252,-0.64476 L 2.87,111.14 A 0.642535,0.644773 -180 0 0 2.22748,110.49524 L 0.64,110.49 a 0.642535,0.644773 -180 0 0 -0.64252,0.64476 z"
   class="st4"
   id="path43"
   inkscape:connector-curvature="0"
   style="fill:#ffffff;fill-opacity:0.6;stroke:none;stroke-width:34;stroke-linecap:butt" />
				</g>
				<g
   id="shape12580-17"
   transform="translate(25.1588,-10.5563)">
					<title
   id="title46">Sheet.12580</title>
					<path
   d="m 9,98.45 a 5.61575,5.63532 -180 1 0 -7.14,5.39 v 9.54 H 4.79 V 103.9 A 5.60315,5.62267 -180 0 0 9,98.45 Z"
   class="st5"
   id="path48"
   inkscape:connector-curvature="0"
   style="fill:#76bc2d;stroke:none;stroke-width:34;stroke-linecap:butt" />
				</g>
			</g>
		</g>
	</g>
</svg>

<svg xmlns="http://www.w3.org/2000/svg" xml:space="preserve" width="56.69" height="45.362" style="font-size:12px;overflow:visible;color-interpolation-filters:sRGB;fill-rule:evenodd;stroke-linecap:square;stroke-miterlimit:3" viewBox="0 0 56.69 45.362"><defs><linearGradient id="a" x1="0" x2="47.819" y1="86.604" y2="86.604" gradientTransform="scale(1.1855 .84352)" gradientUnits="userSpaceOnUse"><stop offset="0" stop-color="#0078d4"/><stop offset="1" stop-color="#5ea0ef"/></linearGradient><linearGradient id="b" x1="0" x2="20.143" y1="196.335" y2="196.335" gradientTransform="scale(1.90932 .52375)" gradientUnits="userSpaceOnUse"><stop offset="0" stop-color="#76bc2d"/><stop offset=".815" stop-color="#86d633"/></linearGradient></defs><g transform="translate(-34 -34.002)"><title>Page-1</title><g transform="translate(34 -34.016)"><title>Azure VMware Solution.12573</title><title>Sheet.12574</title><g transform="translate(0 -5.035)"><title>Sheet.12575</title><path d="M56.69 100.75a12.74 12.785-180 0 0-11.05-12.29 16.063 16.119-180 0 0-16.53-15.4 16.466 16.524-180 0 0-15.74 10.78A15.203 15.256-180 0 0 0 98.5a15.433 15.487-180 0 0 15.96 14.88q.72 0 1.41-.06h25.85a2.56 2.57-180 0 0 .7-.09 12.888 12.933-180 0 0 12.77-12.48" style="fill:url(#a);stroke:none;stroke-width:34;stroke-linecap:butt"/></g><g transform="translate(24.53 -8.17)"><title>Sheet.12576</title><path d="M12 96.06a7.978 8.006-180 1 0-11.87 6.95v10.37h7.66v-10.29A7.953 7.98-180 0 0 12 96.06m-6.58 14.93H2.49v-7.08a8.189 8.218-180 0 0 1.53.16 7.918 7.946-180 0 0 1.4-.15zm0-9.5a5.578 5.597 0 0 1-1.4.2 5.477 5.496 0 0 1-1.53-.24zm2.37-1.26-7.66-.12a5.622 5.642 0 1 1 7.66.11z" style="fill:#fff;stroke:none;stroke-width:34;stroke-linecap:butt"/></g><g transform="translate(9.298)"><title>Sheet.12577</title><path d="M0 112.09a1.285 1.29-180 0 0 1.29 1.29h35.88a1.285 1.29-180 0 0 1.29-1.29v-7.97a1.285 1.29-180 0 0-1.29-1.29H1.29A1.285 1.29-180 0 0 0 104.12Z" style="fill:url(#b);stroke:none;stroke-width:34;stroke-linecap:butt"/></g><g transform="translate(41.93 -5.822)"><title>Sheet.12578</title><path d="M0 112.73a.643.645-180 0 0 .643.645l1.587.005a.643.645-180 0 0 .643-.645l-.003-1.595a.643.645-180 0 0-.643-.645L.64 110.49a.643.645-180 0 0-.643.645z" style="fill:#fff;stroke:none;stroke-width:34;stroke-linecap:butt"/></g><g transform="translate(41.93 -1.846)"><title>Sheet.12579</title><path d="M0 112.73a.643.645-180 0 0 .643.645l1.587.005a.643.645-180 0 0 .643-.645l-.003-1.595a.643.645-180 0 0-.643-.645L.64 110.49a.643.645-180 0 0-.643.645z" style="fill:#fff;fill-opacity:.6;stroke:none;stroke-width:34;stroke-linecap:butt"/></g><g transform="translate(25.159 -10.556)"><title>Sheet.12580</title><path d="M9 98.45a5.616 5.635-180 1 0-7.14 5.39v9.54h2.93v-9.48A5.603 5.623-180 0 0 9 98.45" style="fill:#76bc2d;stroke:none;stroke-width:34;stroke-linecap:butt"/></g></g></g></svg>
